i/li-open.svg

<?xml version="1.0" encoding="UTF-8" standalone="no"?><!DOCTYPE svg PUBLIC "-//W3C//DTD SVG 1.1//EN" "http://www.w3.org/Graphics/SVG/1.1/DTD/svg11.dtd"><svg width="100%" height="100%" viewBox="0 0 24 24" version="1.1" xmlns="http://www.w3.org/2000/svg" xmlns:xlink="http://www.w3.org/1999/xlink" xml:space="preserve" xmlns:serif="http://www.serif.com/" style="fill-rule:evenodd;clip-rule:evenodd;stroke-linejoin:round;stroke-miterlimit:2;"><path d="M17.5,4.5L17.5,2.5L12.5,2.5L12.5,6.5L6,6.5L2.5,6.5L2.5,21.5L7.5,21.5L7.5,11.5L12.5,11.5L12.5,15.5L17.5,15.5L17.5,13.5L19.5,13.5L19.5,11.5C19.5,11.5 21.5,11.5 21.5,11.5L21.5,6.5L19.5,6.5C19.5,6.5 19.5,4.5 19.5,4.5L17.5,4.5Z" style="fill:#fff;fill-opacity:0.2;"/><path d="M4,8L16,8L16,6L18,6L18,8L20,8L20,10L18,10L18,12L16,12L16,10L6,10L6,20L4,20L4,8ZM16,12L16,14L14,14L14,12L16,12ZM16,6L16,4L14,4L14,6L16,6Z" style="fill-rule:nonzero;"/></svg>

<svg fill="none" xmlns="http://www.w3.org/2000/svg" viewBox="0 0 24 24"> <path d="M6 8h10V6h2v2h2v2h-2v2h-2v-2H6v10H4V8h2zm10 4v2h-2v-2h2zm0-6V4h-2v2h2z" fill="currentColor"/> </svg>
